icons/mobile/24/svg/location-slash-24.svg

<svg width="24" height="24" viewBox="0 0 24 24" fill="none" xmlns="http://www.w3.org/2000/svg">
<path fill-rule="evenodd" clip-rule="evenodd" d="M2.25599 3.25684C2.598 2.91497 3.15232 2.91488 3.49428 3.25684L20.7443 20.5068C21.0851 20.8488 21.0851 21.4031 20.7443 21.7451C20.5733 21.9161 20.3481 21.9999 20.1251 22C19.9012 22 19.677 21.9151 19.506 21.7441L16.5011 18.7393C15.811 19.5361 15.1007 20.2949 14.4191 20.9844C13.7722 21.6392 12.913 21.9999 11.9992 22C11.0853 22 10.2252 21.6381 9.57826 20.9844C6.69126 18.0644 3.24916 13.918 3.24916 10.752C3.24917 9.23408 3.64011 7.80743 4.32338 6.5625L2.25599 4.49512C1.91499 4.15312 1.91499 3.59884 2.25599 3.25684ZM5.62611 7.86523C5.22483 8.74566 5.00014 9.72271 5.00013 10.752C5.00013 12.73 7.12335 16.0109 10.8244 19.7539C11.4574 20.3947 12.544 20.3948 13.1749 19.7539C13.9425 18.9777 14.6349 18.2231 15.257 17.4961L12.2511 14.4902C12.1685 14.4958 12.0852 14.5 12.0011 14.5C9.93311 14.5 8.25111 12.818 8.25111 10.75C8.25111 10.6656 8.25432 10.582 8.2599 10.499L5.62611 7.86523Z" fill="black"/>
<path d="M12.0001 2C16.825 2.00011 20.7501 5.92604 20.7501 10.752C20.7501 12.405 19.8091 14.3243 18.5011 16.1973L17.2365 14.9326C18.3724 13.2536 19.0001 11.8119 19.0001 10.752C19.0001 6.89104 15.859 3.75011 12.0001 3.75C10.3381 3.75 8.81151 4.33466 7.60951 5.30566L6.3683 4.06445C7.8913 2.77945 9.85513 2 12.0001 2Z" fill="black"/>
<path d="M12.0001 7C14.068 7.00012 15.7501 8.68207 15.7501 10.75C15.7501 11.515 15.5182 12.2253 15.1232 12.8193L13.839 11.5352C13.942 11.2942 14.0001 11.029 14.0001 10.75C14.0001 9.64707 13.103 8.75012 12.0001 8.75C11.7211 8.75 11.456 8.80813 11.215 8.91113L9.9308 7.62695C10.5248 7.23195 11.2351 7 12.0001 7Z" fill="black"/>
</svg>

<!-- This Source Code Form is subject to the terms of the Mozilla Public
   - License, v. 2.0. If a copy of the MPL was not distributed with this
   - file, You can obtain one at http://mozilla.org/MPL/2.0/. -->
<svg xmlns="http://www.w3.org/2000/svg" width="24" height="24" fill="none" viewBox="0 0 24 24">
    <path fill="#000" fill-rule="evenodd" d="M2.256 3.257a.876.876 0 0 1 1.238 0l17.25 17.25a.874.874 0 0 1-.62 1.493.87.87 0 0 1-.618-.256l-3.005-3.005c-.69.797-1.4 1.556-2.082 2.245A3.38 3.38 0 0 1 12 22a3.4 3.4 0 0 1-2.42-1.016c-2.888-2.92-6.33-7.066-6.33-10.232a8.7 8.7 0 0 1 1.074-4.19L2.256 4.496a.877.877 0 0 1 0-1.238m3.37 4.608A6.9 6.9 0 0 0 5 10.752c0 1.978 2.123 5.259 5.824 9.002.633.64 1.72.64 2.35 0 .769-.776 1.46-1.53 2.083-2.258l-3.006-3.006q-.124.01-.25.01a3.754 3.754 0 0 1-3.741-4.001z" clip-rule="evenodd" />
    <path fill="#000" d="M12 2c4.825 0 8.75 3.926 8.75 8.752 0 1.653-.94 3.572-2.249 5.445l-1.265-1.264C18.373 13.253 19 11.812 19 10.752c0-3.861-3.141-7.002-7-7.002a6.97 6.97 0 0 0-4.39 1.556L6.368 4.064A8.7 8.7 0 0 1 12 2" />
    <path fill="#000" d="M12 7a3.754 3.754 0 0 1 3.75 3.75c0 .765-.232 1.475-.627 2.07l-1.284-1.285a2.002 2.002 0 0 0-2.624-2.624L9.931 7.627A3.7 3.7 0 0 1 12 7" />
</svg>
